html-css/module-08/img/icons/icon-bulb.svg

<svg width="13" height="17"><path fill-rule="evenodd" fill="#FFF" d="M12.22 14.013c.18.437.127.949-.149 1.355a1.478 1.478 0 01-1.227.649H2.122c-.494 0-.952-.242-1.228-.648a1.456 1.456 0 01-.142-1.372l3.059-8.25V3.313c-.58-.2-.995-.745-.995-1.384v-.397c0-.809.664-1.466 1.48-1.466H8.67c.816 0 1.479.657 1.479 1.466v.397a1.47 1.47 0 01-.994 1.385v2.433l3.065 8.266zm-4.861.289a.868.868 0 00.871-.865.867.867 0 00-.871-.862.867.867 0 00-.871.862c0 .477.389.865.871.865zm.514-3.62a.626.626 0 00-.627-.622.627.627 0 00-.629.622c0 .344.282.623.629.623a.626.626 0 00.627-.623zm-3.261 1.957c.28 0 .506-.223.506-.5s-.226-.5-.506-.5a.501.501 0 00-.503.5c0 .277.226.5.503.5zm4.559-10.71v-.397a.5.5 0 00-.501-.497H4.296a.5.5 0 00-.501.497v.397c0 .273.224.496.501.496h.489l.004.485v3.009L3.648 8.997h.045s4.669-.076 5.308-.733l.034-.031-.859-2.314V2.425h.489a.5.5 0 00.506-.496zM6.142 7.787a.679.679 0 01-.682-.676c0-.372.305-.675.682-.675a.68.68 0 01.681.675.68.68 0 01-.681.676z"/></svg>

<svg 
 xmlns="http://www.w3.org/2000/svg"
 xmlns:xlink="http://www.w3.org/1999/xlink"
 width="13px" height="17px">
<path fill-rule="evenodd"  fill="rgb(255, 255, 255)"
 d="M12.220,14.013 C12.400,14.450 12.347,14.962 12.071,15.368 C11.796,15.775 11.337,16.017 10.844,16.017 L2.122,16.017 C1.628,16.017 1.170,15.775 0.894,15.369 C0.619,14.962 0.566,14.450 0.752,13.997 L3.811,5.747 L3.811,3.313 C3.231,3.113 2.816,2.568 2.816,1.929 L2.816,1.532 C2.816,0.723 3.480,0.066 4.296,0.066 L8.670,0.066 C9.486,0.066 10.149,0.723 10.149,1.532 L10.149,1.929 C10.149,2.569 9.733,3.115 9.155,3.314 L9.155,5.747 L12.220,14.013 ZM7.359,14.302 C7.841,14.302 8.230,13.914 8.230,13.437 C8.230,12.963 7.841,12.575 7.359,12.575 C6.877,12.575 6.488,12.963 6.488,13.437 C6.488,13.914 6.877,14.302 7.359,14.302 ZM7.873,10.682 C7.873,10.340 7.591,10.060 7.246,10.060 C6.899,10.060 6.617,10.340 6.617,10.682 C6.617,11.026 6.899,11.305 7.246,11.305 C7.591,11.305 7.873,11.026 7.873,10.682 ZM4.612,12.639 C4.892,12.639 5.118,12.416 5.118,12.139 C5.118,11.862 4.892,11.639 4.612,11.639 C4.335,11.639 4.109,11.862 4.109,12.139 C4.109,12.416 4.335,12.639 4.612,12.639 ZM9.171,1.929 L9.171,1.532 C9.171,1.258 8.946,1.035 8.670,1.035 L4.296,1.035 C4.019,1.035 3.795,1.258 3.795,1.532 L3.795,1.929 C3.795,2.202 4.019,2.425 4.296,2.425 L4.785,2.425 L4.789,2.910 L4.789,5.919 L3.648,8.997 L3.693,8.997 C3.693,8.997 8.362,8.921 9.001,8.264 C9.013,8.252 9.023,8.245 9.035,8.233 L8.176,5.919 L8.176,2.425 L8.665,2.425 C8.946,2.425 9.171,2.202 9.171,1.929 ZM6.142,7.787 C5.765,7.787 5.460,7.484 5.460,7.111 C5.460,6.739 5.765,6.436 6.142,6.436 C6.517,6.436 6.823,6.739 6.823,7.111 C6.823,7.484 6.517,7.787 6.142,7.787 Z"/>
</svg>
